X:1
T:Patterdale
S:David Dolby <dolbydisj2004:yahoo.co.uk> 2012-4-21
M:4/4
L:1/4
K:G
D |\
GGGG | FEDD | EEFF | G3G |\
cccc | BBBB | AGFE | D3D |
GABG | E3E | ABcA | F3D |\
ddcB | ABcd | DDEF | G3 :|
|: D |\
GGAA | B3G/A/ | BBcc | d3d |\
edcB | ABcd | DDEF | G3 :|

